www/assets/icons/coffee_maker.svg

<svg xmlns="http://www.w3.org/2000/svg" width="24" height="24" viewBox="0 0 24 24" fill='currentColor'><path d="M18 6V4h2V2H6c-1.1 0-2 .9-2 2v16c0 1.1.9 2 2 2h14v-2h-4.03A4.97 4.97 0 0 0 18 16v-5H8v5c0 1.64.81 3.09 2.03 4H6V4h2v2c0 .55.45 1 1 1h8c.55 0 1-.45 1-1"/><path d="M13 10a1 1 0 1 0 0-2 1 1 0 0 0 0 2"/></svg>

<svg width="24" height="24" viewBox="0 0 24 24" xmlns="http://www.w3.org/2000/svg" fill='currentColor'><path d="M18 6V4H20V2H6C4.9 2 4 2.9 4 4V20C4 21.1 4.9 22 6 22H20V20H15.97C17.2 19.09 18 17.64 18 16V11H8V16C8 17.64 8.81 19.09 10.03 20H6V4H8V6C8 6.55 8.45 7 9 7H17C17.55 7 18 6.55 18 6Z"/><path d="M13 10C13.5523 10 14 9.55228 14 9C14 8.44772 13.5523 8 13 8C12.4477 8 12 8.44772 12 9C12 9.55228 12.4477 10 13 10Z"/></svg>
